X: 1
T: Karins brudvals
C: Anders Eriksson
S: Bruce Sagan's "scanfolk" session archive 2021-7-18
F: https://app.box.com/s/u6iiren0igvsukrhdducy7orq72jayq8/file/835432066735
R: waltz
Z: 2021 John Chambers <jc:trillian.mit.edu>
M: 3/4
L: 1/8
K: D
% = = = = = = = = = =
"^A"|: A2 |\
"D"{A}d2 (AF) Ad | "A"~c2 (AE) Ac | "G"{c}d2 (B3 G) | "D"A4 A2 |\
"G"B2 (g2 ~f2) | "E7"e4 d2 | "A"c2 (~BA) Bc | A3 A Bc |
"D"{A}d2 (AF) Ad | "A"~c2 (AE) Ac | "G"{c}d2 (B3 G) | "D"A3 D EF |\
"G"{F}G3 (~F E2) | "D"FA fe d2 | "A"cd ue2 uc2 |1 "D"{c}d4 "^fine"y :|2 "D"{c}d3 ||
"^B"|: c dc |\
"Bm"B2 (BF) Bc | {c}d3 (~c B2) | "A"A2 E2 FG | "D"F4 F2 |\
"Bm"f3 (g f2) | "F#"e4 ~c2 | "Bm"{c}d2 dc B2 | "F#7"{B}c3 c dc |
"Bm"B2 (BF) Bc | {c}d3 (~c B2) | "Em"e2 (e^d) ef | {f}g4 {g}a2 |\
"D"f3 e d2 | "A"ce ua2 uc2 | "D"{c}d2 (de) dc |1 {c}d3 :|1 "_D.C. al Fine"{c}d4 |]
% = = = = = = = = = =
